azure-patterns/svg-time-series-insights-black.svg

<svg xmlns="http://www.w3.org/2000/svg" viewBox="0 0 166 166">
                                
                            
<path d="M99.5113 78.2389L92.8331 93.4789L77.1651 43.1357L55.247 80.6362H10.8114C7.38673 80.6362 4.64697 83.376 4.64697 86.8007C4.64697 90.2254 7.38673 92.9652 10.8114 92.9652H62.9525L73.9116 74.4718L91.0351 128.753L107.474 90.9104H154.735C158.245 90.9104 161.07 88.085 161.07 84.5746C161.07 81.0643 158.245 78.2389 154.735 78.2389H99.5113V78.2389Z" fill="#1A1A1F"></path>
<path d="M83.2441 147.932C55.3328 147.932 31.6167 129.952 22.7125 104.952H6.7876C16.2055 138.6 46.8566 163.343 83.2441 163.343C120.317 163.343 151.481 137.744 160.214 102.983H144.375C136.07 129.011 111.84 147.932 83.2441 147.932Z" fill="#1A1A1F"></path>
<path d="M83.2442 18.1356C113.125 18.1356 138.211 38.6838 145.403 66.5095H161.071C153.536 30.1221 121.515 2.81006 83.2442 2.81006C44.2026 2.81006 11.6679 31.3207 4.98975 68.8212H20.4865C26.9935 39.7968 52.5931 18.1356 83.2442 18.1356Z" fill="#1A1A1F"></path>
</svg>

<svg xmlns="http://www.w3.org/2000/svg" viewBox="0 0 166 166"><path d="M99.511 78.239l-6.678 15.24-15.668-50.343-21.918 37.5H10.811a6.139 6.139 0 0 0-6.164 6.165 6.139 6.139 0 0 0 6.164 6.164h52.142l10.959-18.493 17.123 54.281 16.439-37.843h47.261a6.321 6.321 0 0 0 6.335-6.335 6.321 6.321 0 0 0-6.335-6.336H99.511z" fill="#1A1A1F"/><path d="M83.244 147.932c-27.911 0-51.627-17.98-60.532-42.98H6.788c9.418 33.648 40.069 58.391 76.456 58.391 37.073 0 68.237-25.599 76.97-60.36h-15.839c-8.305 26.028-32.535 44.949-61.13 44.949zM83.244 18.136c29.881 0 54.967 20.548 62.159 48.374h15.668c-7.535-36.388-39.556-63.7-77.827-63.7-39.041 0-71.576 28.51-78.254 66.011h15.496c6.508-29.024 32.107-50.685 62.758-50.685z" fill="#1A1A1F"/></svg>
